polaris-icons/icons/new-icons/SoundMajor.svg

<svg width="20" height="20" viewBox="0 0 20 20" fill="none" xmlns="http://www.w3.org/2000/svg">
<path fill-rule="evenodd" clip-rule="evenodd" d="M8.86613 4.3237C9.65359 3.53625 11 4.09395 11 5.20758V14.7934C11 15.907 9.65359 16.4647 8.86613 15.6773L6.26258 13.0737C6.21569 13.0268 6.15211 13.0005 6.0858 13.0005H4.75002C3.78352 13.0005 3.00002 12.217 3.00002 11.2505V8.75048C3.00002 7.78398 3.78352 7.00048 4.75002 7.00048H6.0858C6.15211 7.00048 6.21569 6.97414 6.26258 6.92725L8.86613 4.3237ZM9.50002 5.81114L7.32324 7.98791C6.99505 8.3161 6.54993 8.50048 6.0858 8.50048H4.75002C4.61194 8.50048 4.50002 8.61241 4.50002 8.75048V11.2505C4.50002 11.3885 4.61194 11.5005 4.75002 11.5005H6.0858C6.54993 11.5005 6.99505 11.6849 7.32324 12.013L9.50002 14.1898V5.81114Z" fill="#4A4A4A"/>
<path d="M11.9066 7.34535C12.1501 7.01024 12.6191 6.93595 12.9542 7.17942C13.4397 7.53215 13.8429 7.98594 14.1362 8.50952C14.4294 9.03311 14.6056 9.61403 14.6527 10.2123C14.6998 10.8105 14.6166 11.4119 14.4089 11.9749C14.2012 12.5379 13.8739 13.0492 13.4496 13.4735C13.1567 13.7664 12.6818 13.7664 12.3889 13.4735C12.096 13.1806 12.096 12.7057 12.3889 12.4128C12.6599 12.1418 12.869 11.8153 13.0016 11.4557C13.1343 11.0961 13.1874 10.7121 13.1573 10.33C13.1272 9.94788 13.0147 9.57686 12.8274 9.24246C12.6402 8.90805 12.3826 8.61823 12.0725 8.39295C11.7374 8.14948 11.6631 7.68045 11.9066 7.34535Z" fill="#4A4A4A"/>
<path d="M14.6203 4.88645C14.2852 4.64299 13.8162 4.71727 13.5727 5.05238C13.3292 5.38748 13.4035 5.85651 13.7386 6.09998C14.3802 6.5661 14.913 7.16576 15.3005 7.85766C15.688 8.54955 15.9209 9.31723 15.9831 10.1078C16.0453 10.8983 15.9354 11.693 15.6609 12.437C15.3865 13.181 14.9539 13.8566 14.3932 14.4174C14.1003 14.7103 14.1003 15.1851 14.3932 15.478C14.6861 15.7709 15.161 15.7709 15.4539 15.478C16.1679 14.764 16.7187 13.9036 17.0682 12.9562C17.4177 12.0087 17.5577 10.9968 17.4785 9.9901C17.3992 8.98338 17.1027 8.0058 16.6093 7.12472C16.1158 6.24365 15.4373 5.48002 14.6203 4.88645Z" fill="#4A4A4A"/>
</svg>

<svg viewBox="0 0 20 20" xmlns="http://www.w3.org/2000/svg"><path fill-rule="evenodd" d="M8.866 4.324c.788-.788 2.134-.23 2.134.884v9.585c0 1.114-1.346 1.672-2.134.884l-2.603-2.603a.25.25 0 0 0-.177-.073h-1.336a1.75 1.75 0 0 1-1.75-1.75v-2.5c0-.967.784-1.75 1.75-1.75h1.336a.25.25 0 0 0 .177-.074l2.603-2.603Zm.634 1.487-2.177 2.177a1.75 1.75 0 0 1-1.237.512h-1.336a.25.25 0 0 0-.25.25v2.5c0 .139.112.25.25.25h1.336c.464 0 .909.185 1.237.513l2.177 2.177v-8.379Z" fill="#5C5F62"/><path d="M11.907 7.345a.75.75 0 0 1 1.047-.166 4.152 4.152 0 0 1 .496 6.294.75.75 0 0 1-1.061-1.06 2.65 2.65 0 0 0-.316-4.02.75.75 0 0 1-.166-1.048Z" fill="#5C5F62"/><path d="M14.62 4.886a.75.75 0 0 0-.881 1.214 5.486 5.486 0 0 1 .654 8.317.75.75 0 1 0 1.06 1.061 6.986 6.986 0 0 0-.833-10.592Z" fill="#5C5F62"/></svg>
